X:490
T: Bog Carrot
R: reel
M: 4/4
L: 1/8
S: "Raise the Rafters" (PJ King, K.Crawford, M.O Malley)
Z: B.Black
K: D
D|FAdA BdAd|BdAF E2 DE|FAdA BdAd|BdAF E2 D :|
e|f2 fe defg|afdf e2 de|f2 fe dfef|dBAF E2 D :|
e|afdf afdf|ge=ce gece|afdf afdf|ge^ce d3e|
afdf afdf|ge=ce gece|afge fdec|dbAF E2 D||
